packages/assets/static/images/icons/eye-slash.svg

<svg width="24" height="24" viewBox="0 0 24 24" xmlns="http://www.w3.org/2000/svg">
<g clip-path="url(#clip0_2001_46578)">
<path d="M4.55499 3.24544C4.48913 3.1712 4.40918 3.11077 4.31979 3.06765C4.2304 3.02453 4.13334 2.99958 4.03423 2.99425C3.93513 2.98892 3.83595 3.00331 3.74245 3.03659C3.64895 3.06987 3.56298 3.12137 3.48953 3.18812C3.41608 3.25487 3.35661 3.33554 3.31457 3.42544C3.27252 3.51534 3.24874 3.61269 3.2446 3.71186C3.24045 3.81102 3.25603 3.91002 3.29043 4.00311C3.32483 4.09621 3.37737 4.18155 3.44499 4.25419L5.24874 6.23888C1.84374 8.32857 0.379366 11.5498 0.314679 11.6961C0.272035 11.792 0.25 11.8958 0.25 12.0008C0.25 12.1057 0.272035 12.2095 0.314679 12.3054C0.347491 12.3795 1.14155 14.1401 2.90687 15.9054C5.25905 18.2567 8.22999 19.4998 11.5 19.4998C13.1806 19.5094 14.8442 19.1634 16.3816 18.4845L18.4441 20.7542C18.5099 20.8284 18.5899 20.8889 18.6793 20.932C18.7686 20.9751 18.8657 21.0001 18.9648 21.0054C19.0639 21.0107 19.1631 20.9963 19.2566 20.9631C19.3501 20.9298 19.4361 20.8783 19.5095 20.8115C19.583 20.7448 19.6424 20.6641 19.6845 20.5742C19.7265 20.4843 19.7503 20.3869 19.7544 20.2878C19.7586 20.1886 19.743 20.0896 19.7086 19.9965C19.6742 19.9034 19.6217 19.8181 19.5541 19.7454L4.55499 3.24544ZM8.99218 10.3554L12.8987 14.6539C12.3105 14.9634 11.636 15.0687 10.9814 14.9534C10.3268 14.838 9.72896 14.5085 9.28189 14.0166C8.83481 13.5247 8.56377 12.8982 8.51134 12.2355C8.4589 11.5729 8.62803 10.9116 8.99218 10.3554ZM11.5 17.9998C8.61437 17.9998 6.09343 16.9508 4.00655 14.8826C3.14997 14.0314 2.42145 13.0603 1.84374 11.9998C2.28343 11.1758 3.68687 8.86951 6.2828 7.37044L7.9703 9.22201C7.31699 10.0587 6.98052 11.0995 7.02036 12.1603C7.06021 13.2211 7.47379 14.2337 8.18802 15.019C8.90225 15.8044 9.87114 16.312 10.9234 16.4521C11.9757 16.5921 13.0436 16.3557 13.9384 15.7845L15.3194 17.3033C14.1006 17.7708 12.8053 18.0071 11.5 17.9998ZM12.0625 9.05326C11.8671 9.01596 11.6944 8.90256 11.5826 8.73799C11.4708 8.57343 11.4289 8.37119 11.4662 8.17576C11.5035 7.98032 11.6169 7.80771 11.7815 7.6959C11.9461 7.58408 12.1483 7.54221 12.3437 7.57951C13.2996 7.76482 14.17 8.25418 14.825 8.97459C15.48 9.695 15.8846 10.6079 15.9784 11.577C15.9969 11.775 15.936 11.9723 15.8091 12.1255C15.6822 12.2786 15.4996 12.375 15.3016 12.3936C15.2781 12.3949 15.2547 12.3949 15.2312 12.3936C15.0438 12.3944 14.8628 12.3249 14.724 12.199C14.5852 12.073 14.4986 11.8996 14.4812 11.7129C14.4181 11.0683 14.1486 10.4613 13.7128 9.98208C13.2771 9.50288 12.6982 9.17713 12.0625 9.05326ZM22.6825 12.3054C22.6431 12.3936 21.6934 14.4964 19.555 16.4117C19.4819 16.4792 19.3961 16.5315 19.3027 16.5656C19.2092 16.5996 19.1099 16.6148 19.0105 16.6101C18.9111 16.6053 18.8136 16.5809 18.7238 16.5382C18.6339 16.4954 18.5535 16.4352 18.4871 16.3611C18.4208 16.287 18.3698 16.2004 18.3373 16.1064C18.3047 16.0124 18.2912 15.9128 18.2975 15.8135C18.3037 15.7142 18.3297 15.6172 18.3739 15.528C18.418 15.4388 18.4795 15.3594 18.5547 15.2942C19.6038 14.3516 20.4851 13.2377 21.1609 11.9998C20.5819 10.9384 19.8518 9.96665 18.9934 9.11513C16.9066 7.04888 14.3856 5.99982 11.5 5.99982C10.892 5.99908 10.2849 6.04831 9.68499 6.14701C9.58743 6.16426 9.48741 6.16201 9.39073 6.14039C9.29404 6.11877 9.20259 6.07821 9.12167 6.02105C9.04074 5.96388 8.97195 5.89125 8.91925 5.80735C8.86656 5.72345 8.83101 5.62994 8.81466 5.53222C8.79832 5.4345 8.80149 5.33451 8.82401 5.23803C8.84652 5.14155 8.88793 5.05048 8.94584 4.97009C9.00375 4.8897 9.07702 4.82158 9.1614 4.76967C9.24579 4.71775 9.33963 4.68307 9.43749 4.66763C10.1192 4.55507 10.809 4.49894 11.5 4.49982C14.77 4.49982 17.7409 5.74294 20.0931 8.09513C21.8584 9.86044 22.6525 11.622 22.6853 11.6961C22.7279 11.792 22.75 11.8958 22.75 12.0008C22.75 12.1057 22.7279 12.2095 22.6853 12.3054H22.6825Z"/>
</g>
<defs>
<clipPath id="clip0_2001_46578">
<rect width="24" height="24"/>
</clipPath>
</defs>
</svg>

<svg viewBox="0 0 24 24" xmlns="http://www.w3.org/2000/svg" aria-hidden="true" fill="currentColor"><g clip-path="url(#a)"><path d="M4.555 3.245a.75.75 0 1 0-1.11 1.01l1.804 1.984c-3.405 2.09-4.87 5.31-4.934 5.457a.75.75 0 0 0 0 .61c.032.074.827 1.834 2.592 3.6C5.259 18.255 8.23 19.5 11.5 19.5a11.9 11.9 0 0 0 4.882-1.015l2.062 2.27a.75.75 0 1 0 1.11-1.01zm4.437 7.11 3.907 4.299a3 3 0 0 1-3.907-4.299M11.5 18c-2.886 0-5.407-1.05-7.493-3.117A12.5 12.5 0 0 1 1.844 12c.44-.824 1.843-3.13 4.439-4.63L7.97 9.222a4.5 4.5 0 0 0 5.968 6.563l1.381 1.518A10.5 10.5 0 0 1 11.5 18m.563-8.947a.75.75 0 0 1 .28-1.473 4.515 4.515 0 0 1 3.635 3.997.75.75 0 0 1-.676.817h-.07a.75.75 0 0 1-.75-.681 3.01 3.01 0 0 0-2.42-2.66m10.62 3.252c-.04.089-.99 2.191-3.128 4.107a.75.75 0 0 1-1.068-.05.75.75 0 0 1 .068-1.068A12.5 12.5 0 0 0 21.16 12a12.5 12.5 0 0 0-2.168-2.885C16.907 7.05 14.386 6 11.5 6q-.913 0-1.815.147a.75.75 0 1 1-.248-1.48A12.6 12.6 0 0 1 11.5 4.5c3.27 0 6.24 1.243 8.593 3.595 1.765 1.765 2.56 3.527 2.592 3.601a.75.75 0 0 1 0 .61z"/></g><defs><clipPath id="a"><path d="M0 0h24v24H0z"/></clipPath></defs></svg>
